packages/icons/src/SVG/pause-solid.svg

<svg width="12" height="12" viewBox="0 0 12 12" fill="none" xmlns="http://www.w3.org/2000/svg">
<path d="M2 0H5.00293V12H2V0ZM6.99707 0H10V12H6.99707V0Z" fill="#4C505B"/>
</svg>

<!-- Generated by IcoMoon.io -->
<svg version="1.1" xmlns="http://www.w3.org/2000/svg" width="12" height="12" viewBox="0 0 12 12">
<title>pause-solid</title>
<path d="M2 0h3.003v12h-3.003v-12zM6.997 0h3.003v12h-3.003v-12z"></path>
</svg>
